X:85
T: S HAT SICH A KUKUK ZU TOD GESCHRIEN
N: Z0085
O: Europa, Mitteleuropa, Deutschland, Kuhlaendchen
R: Sagen - Lied, Romanze, Tod
M: 2/4
L: 1/16
K: G
D2 | GGB2B2B2 | F2F2D2
D2 | G2G2B2B2 | F4D2
d2 | d2d2B2GG | eee2d2
d2 | c2c2B2B2 | A4G2

@@@ Tune index: 9843
